src/assets/images/stackoverflow.svg

<?xml version="1.0" ?><svg
  enable-background="new -1163 1657.697 56.693 56.693"
  id="Layer_1"
  version="1.1"
  viewBox="-1163 1657.697 56.693 56.693"
  xml:space="preserve"
  xmlns="http://www.w3.org/2000/svg"
  xmlns:xlink="http://www.w3.org/1999/xlink"
>
  <path
    d="M-1134.653,1662.9163c-13.5996,0-24.625,11.0234-24.625,24.623s11.0254,24.625,24.625,24.625  c13.5985,0,24.6239-11.0254,24.6239-24.625S-1121.0544,1662.9163-1134.653,1662.9163z M-1138.1688,1680.2804l10.5885,6.2452  l-1.3339,2.2612l-10.5891-6.2455L-1138.1688,1680.2804z M-1141.0013,1686.3375l11.8713,3.1913l-0.6814,2.5355l-11.8719-3.1913  L-1141.0013,1686.3375z M-1142.1785,1691.8271l12.2408,1.1279l-0.2408,2.6139l-12.2411-1.1271L-1142.1785,1691.8271z   M-1130.2347,1696.3214l0.0016,2.6257l-12.2936,0.0057l-0.0012-2.6254L-1130.2347,1696.3214z M-1126.0458,1702.4907  c0,0,0,0.6133-0.0206,0.6133v0.01h-19.6694c0,0-0.613,0-0.613-0.01h-0.0209v-12.7936h2.1v10.7336h16.1241v-10.7336h2.0999V1702.4907  z M-1127.153,1686.1653l-6.9266-10.1562l2.1694-1.4792l6.9261,10.1569L-1127.153,1686.1653z M-1124.5138,1684.5271l-2.1025-12.1116  l2.5869-0.449l2.103,12.1117L-1124.5138,1684.5271z"
  />
</svg>

<svg viewBox="-1163 1657.7 56.7 56.7" xmlns="http://www.w3.org/2000/svg">
  <path
    d="M-1134.7 1663a24.6 24.6 0 100 49.2 24.6 24.6 0 000-49.3zm-3.5 17.3l10.6 6.2-1.3 2.3-10.6-6.3 1.3-2.2zm-2.8 6l11.9 3.2-.7 2.6-11.9-3.2.7-2.6zm-1.2 5.5l12.3 1.2-.3 2.6-12.2-1.2.2-2.6zm12 4.5v2.6h-12.3v-2.6h12.3zm4.2 6.2v.6h-19.7-.6v-12.8h2v10.7h16.2v-10.7h2v12.2zm-1.2-16.3l-6.9-10.2 2.2-1.5 7 10.2-2.3 1.5zm2.7-1.7l-2.1-12 2.6-.5 2 12-2.5.5z"
  />
</svg>
